X:44
T:Country Dance. RDO.44
M:C|
L:1/8
Q:1/2=80
S:Robert D. Owen MS,Indiana,1826.
R:.Reel
O:Indiana,USA
A:New Harmony
Z:vmp.Chris Partington
K:C
f|edcd cGGf|edcef2f>g|e>dc>d cGGc|(A/B/c) GED2D:|!
d|c2ga g>ed>e|c/c/c ga {a}g2fe|cega gece|f>g a/g/f/e/d2de|!
c2ga g>ed>e|c/c/c ga {a}g2fe|cega gece|faeg defg|]

